X:11865
T:no name
R:reel
Z:id:hn-reel-591
M:C|
K:Ddor
A2~A2 AGFA|GEED E2FE|~D3E FEFG|Adde fedc|
A2~A2 AGFA|GEED E2FE|~D3E FEFG|Addc d4:|
|:ef~f2 fedf|eccB c2dc|Addc ~d3f|ec~c2 gc~c2|
ef~f2 fedf|eccB c2dc|Addc ~d3e|fdec d4:| 


